libs/ui/packages/crypto-icons/src/svg/DGD.svg

<svg width="24" height="24" viewBox="0 0 24 24" fill="none">
<path fill-rule="evenodd" clip-rule="evenodd" d="M9.375 8.25V10.5H4.125V8.25H9.375ZM10.125 8.25H11.625V15.75H4.125V11.25H10.125V8.25ZM5.625 12.75V14.25H10.125V12.75H5.625ZM19.875 9.75H13.875V14.25H18.375V12.75H15.375V11.25H19.875V15.75H12.375V8.25H19.875V9.75Z" fill="#F4D029"/>
</svg>

<svg width="24" height="24" viewBox="0 0 24 24" fill="none"><path fill="#f4d029" fill-rule="evenodd" d="M9.375 8.25v2.25h-5.25V8.25zm.75 0h1.5v7.5h-7.5v-4.5h6zm-4.5 4.5v1.5h4.5v-1.5zm14.25-3h-6v4.5h4.5v-1.5h-3v-1.5h4.5v4.5h-7.5v-7.5h7.5z" clip-rule="evenodd"/></svg>
